lib/img/icons/ui/browser.svg

<?xml version="1.0" encoding="utf-8"?>
<!-- Generated by IcoMoon.io -->
<!DOCTYPE svg PUBLIC "-//W3C//DTD SVG 1.1//EN" "http://www.w3.org/Graphics/SVG/1.1/DTD/svg11.dtd">
<svg version="1.1" xmlns="http://www.w3.org/2000/svg" xmlns:xlink="http://www.w3.org/1999/xlink" width="32" height="32" viewBox="0 0 32 32">
<path fill="rgb(0, 0, 0)" d="M0 4v24h32v-24h-32zM8 26h-6v-14h6v14zM30 26h-20v-14h20v14z"></path>
</svg>

<svg xmlns="http://www.w3.org/2000/svg" width="32" height="32" viewBox="0 0 32 32" class="svg-icon">
    <path d="M0 4v24h32V4H0zm8 22H2V12h6v14zm22 0H10V12h20v14z"/>
</svg>
